X:45
M:none
L:1/4
K:F
z c A c | d c B A | G2 F2 | A G F | G A B A | G2 | c A c | d c B A | G2 F2 | A G F | G A B A | G2 | G G G | A c c =B | c2 !sintro!c | A F d B | A2 G2 | F4 !eintro!|]
